web/packages/design/src/ResourceIcon/assets/ansible-dark.svg

<svg width="72" height="72" viewBox="0 0 72 72" fill="none" xmlns="http://www.w3.org/2000/svg">
<g clip-path="url(#clip0_13585_14240)">
<path d="M31.851 34.419L45.909 45.504L36.603 22.518L31.851 34.419ZM36 0C16.113 0 0 16.113 0 36C0 55.887 16.113 72 36 72C55.887 72 72 55.887 72 36C72 16.113 55.887 0 36 0ZM53.391 51.915C53.3828 52.2511 53.3084 52.5822 53.1719 52.8895C53.0354 53.1967 52.8396 53.4739 52.5957 53.7053C52.3518 53.9366 52.0646 54.1175 51.7507 54.2376C51.4367 54.3577 51.102 54.4146 50.766 54.405C50.058 54.405 49.518 54.135 48.774 53.526L30.204 38.526L23.967 54.135H18.573L34.314 16.32C34.4908 15.8601 34.8066 15.4668 35.2174 15.1947C35.6282 14.9227 36.1136 14.7854 36.606 14.802C37.0906 14.7838 37.5682 14.9214 37.9688 15.1946C38.3695 15.4678 38.672 15.8622 38.832 16.32L53.154 50.802C53.289 51.135 53.394 51.504 53.394 51.846L53.391 51.915Z" fill="white"/>
</g>
<defs>
<clipPath id="clip0_13585_14240">
<rect width="72" height="72" fill="white"/>
</clipPath>
</defs>
</svg>

<svg xmlns="http://www.w3.org/2000/svg" width="72" height="72" fill="none" viewBox="0 0 72 72"><g clip-path="url(#a)"><path fill="#fff" d="m31.851 34.419 14.058 11.085-9.306-22.986zM36 0C16.113 0 0 16.113 0 36s16.113 36 36 36 36-16.113 36-36S55.887 0 36 0m17.391 51.915a2.554 2.554 0 0 1-2.625 2.49c-.708 0-1.248-.27-1.992-.879l-18.57-15-6.237 15.609h-5.394L34.314 16.32a2.37 2.37 0 0 1 2.292-1.518 2.27 2.27 0 0 1 2.226 1.518l14.322 34.482c.135.333.24.702.24 1.044z"/></g><defs><clipPath id="a"><path fill="#fff" d="M0 0h72v72H0z"/></clipPath></defs></svg>
